X:2735
T:"Gammal polska"
T:ur notbok från Närke
B:[[http://www.smus.se/earkiv/fmk/browselarge.php?lang=sw&katalogid=M+15a&bildnr=00012|SMUS - katalog M15a bild 12]] nr 26
O:Närke
R:Polska
M:3/4
L:1/8
Z:Nils L
K:Am
a>g e2 c>d | Bc A2 a2 | ag b>a gf | f2 e2 z2 :: c2 c>B c2 | ce g>f d2 | 
B2 B>A B2 | Bd f>e c2 :| ag e2 c>d | Bc A2 |]
(:musicend:)
(:music:)
